packages/base/core/src/svg/system/eye-blocked.svg

<?xml version="1.0" encoding="UTF-8"?>
<svg width="24px" height="24px" viewBox="0 0 24 24" version="1.1" xmlns="http://www.w3.org/2000/svg" xmlns:xlink="http://www.w3.org/1999/xlink">
    <!-- Generator: Sketch 54.1 (76490) - https://sketchapp.com -->
    <title>Icons/System/eye-closed</title>
    <desc>Created with Sketch.</desc>
    <g id="Icons/System/eye-closed" stroke="none" stroke-width="1" fill="none" fill-rule="evenodd">
        <path d="M10.0569813,16.5704357 C10.6511391,16.846287 11.3085097,16.999538 11.9991,16.9998 C12.0031,16.9998 12.0071,16.9998 12.0121,16.9988 C14.6441,16.9928 16.7901,14.7648 16.7901,11.9998 C16.7901,11.3527642 16.6725959,10.7351591 16.4588698,10.1685472 L19.2698432,7.35757385 C20.5779681,8.27861414 21.7284383,9.45240459 22.6491,10.8428 C23.1071,11.5438 23.1071,12.4558 22.6451,13.1638 C20.4001,16.5538 16.7791,18.6578 12.8301,18.9428 C12.5581,18.9768 12.2831,19.0008 12.0011,19.0008 L11.9981,19.0008 L11.9961,19.0008 C11.9911,19.0008 11.9861,18.9998 11.9811,18.9998 C11.7111,18.9988 11.4471,18.9768 11.1851,18.9448 C10.1775206,18.8744326 9.1905468,18.6851121 8.24177846,18.3856385 L10.0569813,16.5704357 Z M7.43965989,13.5309029 L4.49320735,16.4773554 C3.27940421,15.5827075 2.20895243,14.4661477 1.3421,13.1578 C0.8851,12.4558 0.8851,11.5438 1.3461,10.8368 C3.5981,7.4368 7.2331,5.3308 11.1851,5.0548 C11.4471,5.0228 11.7111,5.0018 11.9811,5.0008 C11.9861,5.0008 11.9911,4.9998 11.9961,4.9998 L12.0071,4.9998 C12.0131,4.9998 12.0181,5.0018 12.0241,5.0018 C12.2951,5.0028 12.5611,5.0238 12.8241,5.0568 C13.7191578,5.12031145 14.5978029,5.27771971 15.4477116,5.5228512 L13.6614923,7.30907045 C13.144038,7.10919938 12.5848984,7.00002109 12.0021,6.9998 L12.0011,6.9998 C9.3641,7.0008 7.2111,9.2308 7.2111,11.9998 C7.2111,12.5343031 7.29128568,13.0487225 7.43965989,13.5309029 Z M20.9741,12.0648 C20.9981,12.0278 20.9981,11.9728 20.9781,11.9408 C20.2001,10.7658 19.2271,9.7738 18.1241,8.9918 C18.5471,9.9048 18.7901,10.9218 18.7901,11.9998 C18.7901,13.0788 18.5471,14.0958 18.1231,15.0088 C19.2251,14.2278 20.1971,13.2378 20.9741,12.0648 Z M3.0141,12.0588 C3.7961,13.2398 4.7741,14.2348 5.8831,15.0188 C5.4571,14.1028 5.2111,13.0818 5.2111,11.9998 C5.2111,10.9188 5.4571,9.8968 5.8831,8.9808 C4.7751,9.7638 3.7981,10.7568 3.0171,11.9358 C2.9941,11.9728 2.9941,12.0278 3.0141,12.0588 Z M18.2068262,4.37896025 C18.6841337,3.90165278 19.3876503,3.83130112 19.7781746,4.22182541 C20.1686989,4.6123497 20.0983472,5.31586634 19.6210398,5.79317381 L5.79317381,19.6210398 C5.31586634,20.0983472 4.6123497,20.1686989 4.22182541,19.7781746 C3.83130112,19.3876503 3.90165278,18.6841337 4.37896025,18.2068262 L18.2068262,4.37896025 Z" id="Color" fill="#2859C0"></path>
    </g>
</svg>

<svg xmlns="http://www.w3.org/2000/svg" width="24" height="24" viewBox="0 0 24 24">
    <path fill="#0050D7" fill-rule="evenodd" d="M19.778 4.222c.39.39.32 1.094-.157 1.571L5.793 19.621c-.477.477-1.18.548-1.571.157-.39-.39-.32-1.094.157-1.571L18.207 4.379c.477-.477 1.18-.548 1.571-.157zm-3.319 5.947l2.81-2.812a13.098 13.098 0 0 1 3.38 3.486 2.124 2.124 0 0 1-.004 2.32c-2.245 3.39-5.866 5.495-9.815 5.78-.181.022-.364.04-.55.05l-.279.008-.02-.001a6.747 6.747 0 0 1-.796-.055 12.719 12.719 0 0 1-2.943-.56l1.815-1.814A4.602 4.602 0 0 0 12 17l.013-.001c2.632-.006 4.778-2.234 4.778-5a5.18 5.18 0 0 0-.331-1.83l2.81-2.812zm-4.463-5.17h.011c.006 0 .011.003.017.003.271 0 .537.022.8.055.895.063 1.774.22 2.624.466l-1.786 1.786a4.595 4.595 0 0 0-1.37-.3l-.29-.01c-2.638.002-4.79 2.232-4.79 5a5.2 5.2 0 0 0 .227 1.531l-2.946 2.947a13.116 13.116 0 0 1-3.15-3.32 2.128 2.128 0 0 1 .003-2.32c2.252-3.4 5.887-5.506 9.84-5.782.261-.032.525-.053.795-.054h.008L12.007 5zM5.883 8.982a11.161 11.161 0 0 0-2.866 2.955c-.023.037-.023.092-.003.123a11.177 11.177 0 0 0 2.87 2.96 7.139 7.139 0 0 1-.673-3.02c0-1.08.246-2.102.672-3.018zm12.241.01a7.134 7.134 0 0 1 0 6.018 11.154 11.154 0 0 0 2.85-2.944.125.125 0 0 0 .004-.124 11.17 11.17 0 0 0-2.854-2.95z"/>
</svg>
